!!! OTL: Berkowitz412
!!! Chapter: 1
!!! Section: III
!!! Page: 102
!!! Mode: 
!!! Encoder: DJB
**kern
*staff1
*I"Piano
=1-
*clefF4
*k[f#c#g#d#]
*c#:
*M3/8
8F#\
4BB#/
=2
4.E\
=3
8A\
4D#\
=4
4.G#\
=5
8c#\L
8B\
8A\J
=6
8G#\L
8F#\
8C#\J
=7
4.E\
=8
4.D#\
=9
8A\
4D#\
=10
8F#\
4BB#/
=11
8C#\L
8D#\
8E\J
=12
4.AA/
=13
!!linebreak:original
8GG#/L
8C#/
8E/J
=14
8D#/L
8C#/
8BB#/J
=15
4.C#/
==
*-
